img/form/tag2.svg

<svg width="25" height="21" viewBox="0 0 25 21" fill="none" xmlns="http://www.w3.org/2000/svg">
<path fill-rule="evenodd" clip-rule="evenodd" d="M0.0975843 1.08697C-0.0325281 1.20881 -0.0325281 1.43904 0.0975843 1.56088C0.197889 1.65481 0.26626 1.65567 7.5645 1.65567H14.9303L15.0544 1.53932C15.2062 1.39724 15.2115 1.28104 15.0738 1.11706L14.9689 0.992188H7.58383C0.26626 0.992188 0.197889 0.993041 0.0975843 1.08697ZM17.844 1.08782C17.4716 1.21114 17.2359 1.35146 16.96 1.61415C16.5028 2.04949 16.3189 2.52203 16.3522 3.17513C16.3706 3.53621 16.3978 3.63649 16.5609 3.94557C16.9953 4.76862 17.935 5.22827 18.8748 5.07737C20.3443 4.84141 21.1586 3.37906 20.5122 2.13731C20.3169 1.76225 19.869 1.3563 19.445 1.17005C19.1469 1.0391 19.0364 1.01693 18.62 1.00446C18.2354 0.992946 18.0802 1.00963 17.844 1.08782ZM19.1049 1.77272C19.4203 1.89613 19.6692 2.11892 19.8316 2.42322C20.2083 3.12921 19.9074 3.95538 19.1514 4.2911C18.5682 4.55005 17.7663 4.37063 17.3778 3.89434C16.6041 2.94533 17.3765 1.58126 18.6324 1.67894C18.7922 1.69135 19.0049 1.73358 19.1049 1.77272ZM11.2886 3.50772C11.167 3.53004 10.9805 3.59696 10.874 3.65644C10.571 3.82572 7.29076 7.12686 7.16672 7.38728C6.95417 7.83366 7.0686 8.40842 7.4393 8.75632C7.71987 9.01963 7.97027 9.11683 8.37195 9.1183C8.96451 9.12043 9.02043 9.0801 10.5732 7.52974C11.329 6.77522 11.9589 6.15785 11.9731 6.15785C12.0484 6.15785 13.3882 6.5075 13.4224 6.53608C13.4446 6.55461 13.1339 7.10231 12.7321 7.75323C11.971 8.98603 11.7763 9.32379 11.7124 9.52264C11.6914 9.5878 11.2676 10.2717 10.7707 11.0424L9.86705 12.4437L7.07173 13.1437C5.53427 13.5287 4.19322 13.8834 4.09155 13.932C3.44129 14.2426 3.13349 14.9452 3.3635 15.5936C3.54706 16.1111 4.17019 16.5366 4.74454 16.5366C5.00876 16.5366 11.0811 15.0257 11.449 14.8684C11.8 14.7184 11.9957 14.49 12.6483 13.4687C12.9684 12.9677 13.2417 12.5585 13.2556 12.5592C13.2695 12.56 13.6066 12.9326 14.0046 13.3872L14.7284 14.2137L14.5233 16.8087C14.4104 18.236 14.3182 19.523 14.3182 19.6687C14.3184 19.988 14.5389 20.4433 14.7894 20.6414C15.3528 21.0869 16.093 21.1097 16.7066 20.7006C16.8902 20.5781 17.1362 20.2291 17.2024 19.9969C17.2499 19.8306 17.7091 14.161 17.7091 13.7417C17.7091 13.3501 17.5861 13.1297 16.9807 12.4363L16.4083 11.7805L17.1404 10.5923C17.5431 9.93883 17.9405 9.29218 18.0234 9.15536C18.1063 9.01854 18.2045 8.90655 18.2415 8.90655C18.2785 8.90655 18.7525 9.00252 19.295 9.11981C19.8374 9.23711 20.4028 9.33288 20.5513 9.3326C21.0902 9.3317 21.1619 9.27616 23.0229 7.42097C24.0919 6.35519 24.7697 5.64138 24.8574 5.48868C25.1913 4.9079 24.917 4.14026 24.2628 3.82444C24.1444 3.76724 23.9239 3.71781 23.7314 3.70525C23.4319 3.68573 23.3743 3.69805 23.0885 3.84269C22.8253 3.9759 22.5649 4.21196 21.4754 5.30481C20.7608 6.0216 20.1586 6.62612 20.1372 6.64816C20.1157 6.6702 19.8542 6.63949 19.556 6.57987C19.0205 6.47291 19.0101 6.46822 18.7279 6.20804C18.5029 6.00061 18.1034 5.76436 16.8494 5.09699L15.2569 4.24935L13.5604 3.88235C11.5909 3.4563 11.5793 3.45441 11.2886 3.50772ZM13.2861 4.52579C14.1979 4.72284 14.9911 4.90719 15.0487 4.93534C15.3546 5.08505 18.0089 6.51556 18.1323 6.59726C18.3516 6.74252 18.4342 6.96474 18.3517 7.18748C18.3153 7.28586 17.6756 8.35473 16.9302 9.56273C15.8717 11.2782 15.5816 11.7835 15.6049 11.8706C15.6214 11.932 15.9098 12.2941 16.246 12.6754C16.5821 13.0568 16.8885 13.4388 16.9267 13.5245C16.9877 13.6611 16.9685 14.0386 16.771 16.5894C16.6471 18.1894 16.5326 19.59 16.5167 19.7019C16.4393 20.244 15.7657 20.4976 15.3251 20.1505C15.0031 19.8968 15.0057 20.0143 15.2534 16.8888C15.4245 14.7291 15.4643 14.0343 15.4211 13.9584C15.39 13.9037 14.716 13.1253 13.9235 12.2286C13.131 11.332 12.4517 10.5429 12.4139 10.4752C12.3178 10.3027 12.328 9.94381 12.4365 9.67718C12.487 9.55307 12.9165 8.82243 13.3909 8.05351C13.8653 7.28458 14.2926 6.58385 14.3406 6.49632C14.4445 6.30666 14.4124 6.13851 14.2543 6.0443C14.1016 5.95326 12.047 5.44698 11.8304 5.44698C11.6697 5.44698 11.5619 5.54299 10.2468 6.85687C9.47059 7.63234 8.77676 8.30397 8.70495 8.34937C8.63096 8.39619 8.47944 8.43216 8.3554 8.43231C7.9894 8.43283 7.73697 8.11971 7.8099 7.7556C7.83404 7.63495 8.21684 7.22567 9.53476 5.91142C10.4663 4.98235 11.269 4.21239 11.3185 4.20035C11.5165 4.15206 11.6898 4.18073 13.2861 4.52579ZM0.0975843 4.30959C-0.0325281 4.43143 -0.0325281 4.66166 0.0975843 4.7835C0.196877 4.87648 0.26626 4.87828 3.78314 4.87828H7.36743L7.47751 4.76862C7.61556 4.63099 7.61825 4.45313 7.48434 4.31854L7.38115 4.2148H3.78997C0.26626 4.2148 0.196877 4.2166 0.0975843 4.30959ZM24.0874 4.52436C24.2197 4.63644 24.3028 4.89733 24.2619 5.07183C24.2374 5.176 23.7717 5.67379 22.6327 6.81332C21.7555 7.69091 20.9782 8.45629 20.9053 8.5142C20.6816 8.69196 20.5486 8.68831 19.57 8.47738C19.0614 8.36781 18.6364 8.27075 18.6254 8.2617C18.6145 8.25269 18.7113 8.05156 18.8405 7.8148C18.9698 7.57803 19.0755 7.35486 19.0755 7.31889C19.0755 7.20008 19.1599 7.20018 19.7355 7.31937C20.0489 7.38429 20.3122 7.43742 20.3205 7.43742C20.3287 7.43742 21.0109 6.76569 21.8363 5.94464C22.9631 4.82388 23.3768 4.44214 23.4963 4.41266C23.6909 4.36475 23.9588 4.41536 24.0874 4.52436ZM0.0975843 7.5322C-0.0325281 7.65404 -0.0325281 7.88427 0.0975843 8.00612C0.196067 8.09834 0.26626 8.1009 2.72038 8.1009H5.24191L5.35198 7.99123C5.49004 7.85361 5.49272 7.67575 5.35881 7.54116L5.25562 7.43742H2.72721C0.26626 7.43742 0.196118 7.43993 0.0975843 7.5322ZM0.253102 10.7849C0.195409 10.8536 0.148192 10.9467 0.148192 10.9918C0.148192 11.0369 0.195409 11.13 0.253102 11.1986L0.357961 11.3235H4.29043C8.70019 11.3235 8.44786 11.3437 8.44786 10.9918C8.44786 10.6399 8.70019 10.66 4.29043 10.66H0.357961L0.253102 10.7849ZM12.2199 11.3709C12.4363 11.6185 12.6455 11.8565 12.6849 11.8997C12.7487 11.9694 12.679 12.0983 12.0616 13.0529C11.6792 13.644 11.3114 14.1614 11.2442 14.2026C11.0715 14.3086 5.02723 15.8277 4.76539 15.8309C4.03967 15.8399 3.75743 14.9908 4.35177 14.5866C4.41964 14.5403 5.68215 14.2013 7.15736 13.833C8.63258 13.4647 9.95344 13.1332 10.0926 13.0962L10.3456 13.029L11.049 11.9369C11.4359 11.3362 11.7691 10.8618 11.7895 10.8827C11.8099 10.9036 12.0036 11.1233 12.2199 11.3709ZM0.0975843 13.9774C-0.0325281 14.0993 -0.0325281 14.3295 0.0975843 14.4513C0.189083 14.537 0.26626 14.5461 0.90169 14.5461C1.50939 14.5461 1.62022 14.5343 1.71987 14.4587C1.86212 14.3509 1.87351 14.1132 1.74294 13.978C1.65868 13.8909 1.58803 13.8826 0.924767 13.8826C0.26626 13.8826 0.189387 13.8915 0.0975843 13.9774ZM0.0975843 17.2C-0.0325281 17.3219 -0.0325281 17.5521 0.0975843 17.674C0.192929 17.7632 0.26626 17.7687 1.35908 17.7687H2.51942L2.62428 17.6439C2.75662 17.4863 2.75662 17.3877 2.62428 17.2301L2.51942 17.1053H1.35908C0.26626 17.1053 0.192929 17.1108 0.0975843 17.2ZM0.0975843 20.4227C-0.0325281 20.5445 -0.0325281 20.7747 0.0975843 20.8966C0.197686 20.9903 0.26626 20.9914 6.44688 20.9914H12.695L12.7981 20.8876C12.9349 20.7502 12.9291 20.5583 12.7842 20.4309L12.6671 20.3279H6.43296C0.26626 20.3279 0.197686 20.3289 0.0975843 20.4227Z" fill="white"/>
</svg>

<svg width="25" height="21" fill="none" xmlns="http://www.w3.org/2000/svg"><path fill-rule="evenodd" clip-rule="evenodd" d="M.098 1.087a.336.336 0 000 .474c.1.094.168.095 7.466.095h7.366l.124-.117c.152-.142.157-.258.02-.422l-.105-.125H7.584C.266.992.198.993.098 1.087zm17.746 0a2.118 2.118 0 00-.884.527c-.457.435-.641.908-.608 1.561.019.361.046.461.209.77.434.824 1.374 1.283 2.314 1.132 1.47-.236 2.284-1.698 1.637-2.94-.195-.375-.643-.78-1.067-.967-.298-.13-.409-.153-.825-.166-.385-.011-.54.006-.776.084zm1.26.686c.316.123.565.346.728.65.376.706.075 1.532-.68 1.868-.584.259-1.386.08-1.774-.397-.774-.949-.002-2.313 1.254-2.215.16.012.373.055.473.094zM11.29 3.508a1.616 1.616 0 00-.415.148c-.303.17-3.583 3.47-3.707 3.731-.213.447-.098 1.021.272 1.37.28.263.531.36.933.361.593.002.648-.038 2.201-1.588.756-.755 1.386-1.372 1.4-1.372.075 0 1.415.35 1.45.378.022.019-.29.566-.69 1.217-.762 1.233-.957 1.57-1.02 1.77-.022.065-.445.749-.942 1.52l-.904 1.4-2.795.7c-1.538.386-2.879.74-2.98.789-.65.31-.959 1.013-.728 1.662.183.517.806.943 1.38.943.265 0 6.337-1.511 6.705-1.669.351-.15.547-.378 1.2-1.4.32-.5.593-.91.607-.909.014.001.35.374.749.828l.723.827-.205 2.595a116.073 116.073 0 00-.205 2.86c0 .319.22.774.471.972.564.446 1.304.469 1.918.06.183-.123.43-.472.495-.704.048-.166.507-5.836.507-6.255 0-.392-.123-.612-.728-1.306l-.573-.655.732-1.189c.403-.653.8-1.3.883-1.437.083-.136.181-.248.218-.248.038 0 .512.096 1.054.213.542.117 1.108.213 1.256.213.54-.001.61-.057 2.472-1.912 1.069-1.066 1.747-1.78 1.834-1.932.334-.581.06-1.349-.594-1.665a1.653 1.653 0 00-.532-.119c-.3-.02-.357-.007-.643.138-.263.133-.523.369-1.613 1.462l-1.338 1.343c-.021.022-.283-.009-.581-.068-.536-.107-.546-.112-.828-.372-.225-.207-.625-.444-1.879-1.111l-1.592-.848-1.697-.367c-1.97-.426-1.98-.428-2.271-.374zm1.997 1.018c.912.197 1.705.381 1.763.41.306.149 2.96 1.58 3.083 1.661.22.146.302.368.22.59-.037.099-.676 1.168-1.422 2.376-1.058 1.715-1.348 2.22-1.325 2.308.016.061.305.423.641.804.336.382.643.764.68.85.062.136.043.514-.155 3.064a212.06 212.06 0 01-.254 3.113c-.078.542-.751.796-1.192.448-.322-.253-.32-.136-.072-3.261.171-2.16.211-2.855.168-2.93-.031-.055-.705-.834-1.497-1.73-.793-.897-1.472-1.686-1.51-1.754-.096-.172-.086-.531.023-.798.05-.124.48-.855.954-1.623.474-.77.902-1.47.95-1.558.104-.19.071-.357-.087-.452-.152-.09-2.207-.597-2.424-.597-.16 0-.268.096-1.583 1.41-.776.775-1.47 1.447-1.542 1.492a.761.761 0 01-.35.083.548.548 0 01-.545-.676c.024-.121.407-.53 1.725-1.845.931-.929 1.734-1.699 1.784-1.71.197-.049.37-.02 1.967.325zM.098 4.31a.336.336 0 000 .474c.099.092.168.094 3.685.094h3.584l.11-.11c.139-.137.141-.315.007-.45l-.103-.103H3.79c-3.524 0-3.593.002-3.692.095zm23.99.214c.132.112.215.373.174.548-.025.104-.49.602-1.63 1.741a86.643 86.643 0 01-1.727 1.701c-.223.178-.356.174-1.335-.037a20.73 20.73 0 01-.945-.215c-.01-.01.086-.21.215-.447.13-.237.236-.46.236-.496 0-.119.084-.119.66 0 .313.065.576.118.584.118.009 0 .69-.671 1.516-1.492 1.127-1.121 1.54-1.503 1.66-1.532.195-.048.463.002.591.111zM.097 7.532a.336.336 0 000 .474c.098.092.168.095 2.622.095h2.522l.11-.11c.138-.137.14-.315.007-.45l-.103-.104H2.727c-2.46 0-2.53.003-2.63.095zm.155 3.253c-.058.069-.105.162-.105.207 0 .045.047.138.105.207l.105.124H4.29c4.41 0 4.158.02 4.158-.331 0-.352.252-.332-4.158-.332H.358l-.105.125zm11.967.586c.216.247.425.486.465.529.064.07-.006.198-.623 1.153-.383.591-.75 1.108-.818 1.15-.172.106-6.217 1.625-6.479 1.628-.725.009-1.008-.84-.413-1.244.068-.047 1.33-.386 2.805-.754 1.476-.368 2.796-.7 2.936-.737l.253-.067.703-1.092c.387-.6.72-1.075.74-1.054.02.02.215.24.43.488zM.098 13.977a.336.336 0 000 .474c.091.086.168.095.804.095.607 0 .718-.012.818-.087.142-.108.154-.346.023-.481-.084-.087-.155-.095-.818-.095-.659 0-.736.009-.827.094zm0 3.223a.337.337 0 000 .474c.095.09.168.095 1.261.095h1.16l.105-.125c.133-.158.133-.256 0-.414l-.105-.125H1.36c-1.093 0-1.166.006-1.261.095zm0 3.223a.336.336 0 000 .474c.1.093.168.094 6.349.094h6.248l.103-.103a.3.3 0 00-.014-.457l-.117-.103H6.433c-6.167 0-6.235 0-6.335.095z" fill="#fff"/></svg>
